X:1
T:Title
%%score { ( 1 4 ) | ( 2 3 ) }
L:1/8
Q:1/4=120
M:4/4
K:Ab
V:1 treble nm="Grand Piano"
V:4 treble 
V:2 bass 
V:3 bass 
V:1
 A4 B3 c | A4 E4 | G2 A2 B2 c2 | B4 A4 | c4 B3 c | A6 z2 | [CEG]2 [CEF]2 [B,=DB]2 D2 | F4 E4 | %8
w: H.~Kingsbury * *||||||||
 c4 c3 d | e4 B4 | A2 G2 A2 [DFB]2 | E4- [EG]4 | B4 c3 d | c4 A4 | G2 [CFA]2 [DEB]2 [Ec]2 | %15
w: |||||||
 [CEA]6 z2 | A4 d3 c | c4 A4 | G4 B3 B | A4 c4 | c4 [_Ge]3 [Ge] | [Fd]4 [FB]2 [FB]2 | G2 A2 c3 B | %23
w: ||||||||
 [CA]6 z2 |] %24
w: |
V:2
 [A,C]4 [A,D]3 [A,E] | [A,C]4 [A,C]4 | [E,B,E]2 [E,CE]2 [E,DE]2 [E,E]2 | D4 z4 | %4
 [A,E]4 [G,B,E]3 [G,B,E] | [CE]4 z4 | A,,2 A,,2 B,,2 [B,,A,B,]2 | A,4 z4 | [A,E]4 [A,E]3 [A,B,E] | %9
 [G,B,E]4 [G,B,E]4 | [F,CE]2 [F,B,E]2 [F,CE]2 B,,2 | z4 B,4 | [E,G,E]4 [E,A,E]3 [E,B,E] | %13
 [A,E]4 [A,CE]4 | [E,B,E]2 E,2 E,2 E,2 | A,,6 z2 | [A,C]4 [A,F]3 [A,E] | [A,E]4 [A,C]4 | %18
 [E,B,E]4 [E,DE]3 [E,DE] | [A,CE]4 [A,E]4 | [A,E]4 [C,A,]3 [C,A,] | [D,A,]4 [D,D]2 [D,D]2 | %22
 [E,B,E]2 [E,CE]2 [E,G,E]3 [E,G,D] | [A,,E,]6 z2 |] %24
V:3
 x8 | x8 | x8 | [A,E]4- [A,CE]4 | x8 | F,4- [F,B,]2 E,2 | x8 | [E,B,]4- [E,G,B,]4 | x8 | x8 | x8 | %11
 E,8 | x8 | x8 | x8 | x8 | x8 | x8 | x8 | x8 | x8 | x8 | x8 | x8 |] %24
V:4
 x8 | x8 | x8 | x8 | x8 | z4 D2 [B,EG]2 | x8 | x8 | x8 | x8 | x8 | [CA]4 z4 | x8 | x8 | x8 | x8 | %16
 x8 | x8 | x8 | x8 | x8 | x8 | x8 | x8 |] %24

